X: 192103
T: Sweat House (The)
C: Joe Liddy
Z: BB
S: "The Leitrim Fiddler" (Dublin 1981)
L: 1/8
M: 4/4
R: reel
Q: 1/4 = 180
K: Edor
AF | E2 FD E2 FA | BdAB defd | edef d2 ed | BdAF DEFD |
E2 FE BEFA | BdAB defd | edef dBAF | DEFD E2 :|
FA | Be e2 fded | BdAB dAFA | Be e2 dcde | fdad gded |
Be e2 fded | BdAB defd | edef dBAF | DEFD E2 :|
%%%%%%%%%%%%%%%%%%%%%%
